X: 212
T: 213. O wie selig ihr doch, ihr Frommen
N: Derived from chor213.krn
C: Johann Sebastian Bach
%%abc-version 2.0
%%abcx-abcm2ps-target-version 5.9.1 (29 Sep 2008)
%%abc-creator hum2abc beta
%%abcx-conversion-date 2019/03/11 17:28:18
%%abc-edited-by Craig Stuart Sapp
%%humdrum-veritas 88319973
%%humdrum-veritas-data 1722786055
%%
%%barnumbers 0
L: 1/4
M: C
%%staves [1 2 3 4]
V: 1 clef=treble
V: 2 clef=treble
V: 3 clef=treble-8
V: 4 clef=bass
K: F
[V:1] AdcB/A/ | 
[V:2] FGGF- | 
[V:3] dded | 
[V:4] D,C,/B,,/A,,D, | 
[V:1] BAGA/B/ | 
[V:2] F/E/F-F/E/F | 
[V:3] d/B/ccc | 
[V:4] G,,A,,/B,,/C,F, | 
[V:1] G2!fermata!F2 | 
[V:2] FE!fermata!C2 | 
[V:3] d/B/ G/c/!fermata!A2 | 
[V:4] B,,C,!fermata!F,,2 | 
[V:1] A/B/c=B3/^c/ | 
[V:2] FG/A/GG | 
[V:3] c/d/ e/d/de | 
[V:4] F,E,/^F,/ G,/=F,/E, | 
[V:1] d=c/d/ed/c/ | 
[V:2] A/=B/AAA | 
[V:3] d/=B/eef | 
[V:4] ^F,/^G,/A,C,D, | 
[V:1] =B2!fermata!A2 | 
[V:2] A^G!fermata!E2 | 
[V:3] =B/ed/!fermata!^c2 | 
[V:4] E,E,,!fermata!A,,2 | 
[V:1] zA=GE | 
[V:2] x^CDE | 
[V:3] xEDA | 
[V:4] zA,,=B,,^C, | 
[V:1] F2!fermata!E2 | 
[V:2] ED!fermata!^C2 | 
[V:3] A2!fermata!A2 | 
[V:4] D,D,,!fermata!A,,2 | 
[V:1] DEFG | 
[V:2] DA,D=C | 
[V:3] AAA/B/ A/G/ | 
[V:4] F,^C,D,E, | 
[V:1] A=B^cd | 
[V:2] CFED/E/ | 
[V:3] F/A/ G/F/GA/B/ | 
[V:4] F,E,/D,/E,F,/G,/ | 
[V:1] d^c!fermata!d2 |]  
[V:2] F/E//D//E!fermata!^F2 |]  
[V:3] AA!fermata!A2 |]  
[V:4] A,A,,!fermata!D,2 |]  



